storage/app/icons/phosphoricons/duotone/number-square-six-duotone.svg

<svg xmlns="http://www.w3.org/2000/svg" fill="currentColor" viewBox="0 0 256 256"><path d="M216 48v160a8 8 0 0 1-8 8H48a8 8 0 0 1-8-8V48a8 8 0 0 1 8-8h160a8 8 0 0 1 8 8" opacity=".2"/><path d="M208 32H48a16 16 0 0 0-16 16v160a16 16 0 0 0 16 16h160a16 16 0 0 0 16-16V48a16 16 0 0 0-16-16m0 176H48V48h160zm-80-96h-1.82l16.69-27.9a8 8 0 0 0-13.74-8.2l-32.23 54A36 36 0 1 0 128 112m0 56a20 20 0 1 1 20-20 20 20 0 0 1-20 20"/></svg>

<svg xmlns="http://www.w3.org/2000/svg" viewBox="0 0 256 256" fill="currentColor"><path d="M216,48V208a8,8,0,0,1-8,8H48a8,8,0,0,1-8-8V48a8,8,0,0,1,8-8H208A8,8,0,0,1,216,48Z" opacity="0.2"/><path d="M208,32H48A16,16,0,0,0,32,48V208a16,16,0,0,0,16,16H208a16,16,0,0,0,16-16V48A16,16,0,0,0,208,32Zm0,176H48V48H208V208Zm-80-96c-.61,0-1.22,0-1.82,0L142.87,84.1a8,8,0,0,0-13.74-8.2l-32.23,54A36,36,0,1,0,128,112Zm0,56a20,20,0,1,1,20-20A20,20,0,0,1,128,168Z"/></svg>
